src/apps/scalable/asc-de.svg

<?xml version="1.0" encoding="UTF-8"?>
<svg width="64" height="64" version="1.1" xmlns="http://www.w3.org/2000/svg" xmlns:xlink="http://www.w3.org/1999/xlink">
 <defs>
  <filter id="filter957" x="-.04332" y="-.04332" width="1.0866" height="1.0866" color-interpolation-filters="sRGB">
   <feGaussianBlur stdDeviation="0.8303"/>
  </filter>
  <linearGradient id="bg" x2="0" y1="1" y2="47" gradientTransform="matrix(1.3043 0 0 1.3043 .69565 .69565)" gradientUnits="userSpaceOnUse">
   <stop stop-color="#555d6d" offset="0"/>
   <stop stop-color="#2a2c32" offset="1"/>
  </linearGradient>
  <filter id="filter859" x="-.046154" y="-.05" width="1.0923" height="1.1" color-interpolation-filters="sRGB">
   <feGaussianBlur stdDeviation="0.50000081"/>
  </filter>
  <linearGradient id="linearGradient1143" x1="32.001" x2="32.001" y1="32" y2="5" gradientUnits="userSpaceOnUse">
   <stop stop-color="#3b8ada" offset="0"/>
   <stop stop-color="#41adf1" offset="1"/>
  </linearGradient>
  <linearGradient id="linearGradient1246" x1="32.522" x2="32.522" y1="46.291" y2="25.371" gradientUnits="userSpaceOnUse">
   <stop stop-color="#bede1f" offset="0"/>
   <stop stop-color="#98f55f" offset="1"/>
  </linearGradient>
  <linearGradient id="linearGradient1444" x1="32.896" x2="32.896" y1="58.413" y2="40.16" gradientUnits="userSpaceOnUse">
   <stop stop-color="#ff7c4d" offset="0"/>
   <stop stop-color="#f45237" offset="1"/>
  </linearGradient>
  <filter id="filter1640" x="-.049846" y="-.092571" width="1.0997" height="1.1851" color-interpolation-filters="sRGB">
   <feGaussianBlur stdDeviation="1.08"/>
  </filter>
  <filter id="filter1644" x="-.049846" y="-.092571" width="1.0997" height="1.1851" color-interpolation-filters="sRGB">
   <feGaussianBlur stdDeviation="1.08"/>
  </filter>
  <filter id="filter1648" x="-.049846" y="-.092571" width="1.0997" height="1.1851" color-interpolation-filters="sRGB">
   <feGaussianBlur stdDeviation="1.08"/>
  </filter>
 </defs>
 <circle transform="matrix(1.3043 0 0 1.3043 .69565 .69565)" cx="24" cy="24" r="23" filter="url(#filter957)" opacity=".15"/>
 <circle cx="31.999" cy="31.999" r="29.999" fill="url(#bg)" stroke-width="1.3043"/>
 <circle cx="15.5" cy="30.5" r="0" fill="#3a3e46" style="paint-order:normal"/>
 <g transform="matrix(.70175 0 0 .70175 9.5439 9.193)">
  <path transform="matrix(1.3043 0 0 1.3043 .69565 .69565)" d="m25 12c-5.5228 0-10 4.4772-10 10v5.2637c-1.7958 0.6349-2.9973 2.3316-3 4.2363 0 2.4853 2.0147 4.5 4.5 4.5 0.90764 9e-5 1.7941-0.27429 2.543-0.78711 0.09958 0.44764 0.47854 0.78711 0.95703 0.78711 0.554 0 1-0.446 1-1v-7c0-0.554-0.446-1-1-1-0.47996 0-0.86093 0.3413-0.95898 0.79102-0.32264-0.22022-0.67259-0.3975-1.041-0.52735v-5.2637c0-3.866 3.134-7 7-7s7 3.134 7 7v5.2637c-1.7958 0.6349-2.9988 2.3316-3 4.2363-0.0015 2.4853 2.0147 4.5 4.5 4.5s4.5015-2.0147 4.5-4.5c-0.0012-1.9047-1.2042-3.6014-3-4.2363v-5.2637c0-5.5228-4.4772-10-10-10zm-8.5 17c1.3807 0 2.5 1.1193 2.5 2.5s-1.1193 2.5-2.5 2.5-2.5-1.1193-2.5-2.5 1.1193-2.5 2.5-2.5zm17 0c1.3807 0 2.5 1.1193 2.5 2.5s-1.1193 2.5-2.5 2.5-2.5-1.1193-2.5-2.5 1.1193-2.5 2.5-2.5z" filter="url(#filter859)" opacity=".1" style="paint-order:normal"/>
  <path d="m32.001 33c-1.7246-2.84e-4 -3.4492 0.3446-4.7254 1.0318l-19.363 10.424c-2.5524 1.3744-2.5501 3.7145 0.00236 5.0889l19.36 10.424c2.5524 1.3744 6.8984 1.3744 9.4509 0l19.36-10.424c2.5524-1.3744 2.55-3.7145-0.0024-5.0889l-19.358-10.424c-1.2762-0.68719-3.0009-1.0315-4.7254-1.0318z" filter="url(#filter1648)" opacity=".2"/>
  <path d="m32.001 32c-1.7246-2.84e-4 -3.4492 0.3446-4.7254 1.0318l-19.363 10.424c-2.5524 1.3744-2.5501 3.7145 0.00236 5.0889l19.36 10.424c2.5524 1.3744 6.8984 1.3744 9.4509 0l19.36-10.424c2.5524-1.3744 2.55-3.7145-0.0024-5.0889l-19.358-10.424c-1.2762-0.68719-3.0009-1.0315-4.7254-1.0318z" fill="url(#linearGradient1444)"/>
  <path d="m32.001 19c-1.7246-2.81e-4 -3.4492 0.34461-4.7254 1.0318l-19.363 10.424c-2.5524 1.3744-2.5501 3.7145 0.00236 5.0889l19.36 10.424c2.5524 1.3744 6.8984 1.3744 9.4509 0l19.36-10.424c2.5524-1.3744 2.55-3.7145-0.0024-5.0889l-19.358-10.424c-1.2762-0.68719-3.0009-1.0315-4.7254-1.0318z" filter="url(#filter1644)" opacity=".2"/>
  <path d="m32.001 18c-1.7246-2.82e-4 -3.4492 0.3446-4.7254 1.0318l-19.363 10.424c-2.5524 1.3744-2.5501 3.7145 0.00236 5.0889l19.36 10.424c2.5524 1.3744 6.8984 1.3744 9.4509 0l19.36-10.424c2.5524-1.3744 2.55-3.7145-0.0024-5.0889l-19.358-10.424c-1.2762-0.68719-3.0009-1.0315-4.7254-1.0318z" fill="url(#linearGradient1246)"/>
  <path d="m32.001 5c-1.7246-2.814e-4 -3.4492 0.34461-4.7254 1.0318l-19.363 10.424c-2.5524 1.3744-2.5501 3.7145 0.00236 5.0889l19.36 10.424c2.5524 1.3744 6.8984 1.3744 9.4509 0l19.36-10.424c2.5524-1.3744 2.55-3.7145-0.0024-5.0889l-19.358-10.424c-1.2762-0.68719-3.0009-1.0315-4.7254-1.0318z" filter="url(#filter1640)" opacity=".2"/>
  <path d="m32.001 4c-1.7246-2.814e-4 -3.4492 0.34461-4.7254 1.0318l-19.363 10.424c-2.5524 1.3744-2.5501 3.7145 0.00236 5.0889l19.36 10.424c2.5524 1.3744 6.8984 1.3744 9.4509 0l19.36-10.424c2.5524-1.3744 2.55-3.7145-0.0024-5.0889l-19.358-10.424c-1.2762-0.68719-3.0009-1.0315-4.7254-1.0318z" fill="url(#linearGradient1143)"/>
 </g>
</svg>

<svg width="64" height="64" xmlns="http://www.w3.org/2000/svg"><defs><filter id="a" x="-.043" y="-.043" width="1.087" height="1.087" color-interpolation-filters="sRGB"><feGaussianBlur stdDeviation=".83"/></filter><filter id="c" x="-.046" y="-.05" width="1.092" height="1.1" color-interpolation-filters="sRGB"><feGaussianBlur stdDeviation=".5"/></filter><filter id="h" x="-.05" y="-.093" width="1.1" height="1.185" color-interpolation-filters="sRGB"><feGaussianBlur stdDeviation="1.08"/></filter><filter id="f" x="-.05" y="-.093" width="1.1" height="1.185" color-interpolation-filters="sRGB"><feGaussianBlur stdDeviation="1.08"/></filter><filter id="d" x="-.05" y="-.093" width="1.1" height="1.185" color-interpolation-filters="sRGB"><feGaussianBlur stdDeviation="1.08"/></filter><linearGradient id="b" x2="0" y1="1" y2="47" gradientTransform="translate(.696 .696) scale(1.3043)" gradientUnits="userSpaceOnUse"><stop stop-color="#555d6d" offset="0"/><stop stop-color="#2a2c32" offset="1"/></linearGradient><linearGradient id="i" x1="32.001" x2="32.001" y1="32" y2="5" gradientUnits="userSpaceOnUse"><stop stop-color="#3b8ada" offset="0"/><stop stop-color="#41adf1" offset="1"/></linearGradient><linearGradient id="g" x1="32.522" x2="32.522" y1="46.291" y2="25.371" gradientUnits="userSpaceOnUse"><stop stop-color="#bede1f" offset="0"/><stop stop-color="#98f55f" offset="1"/></linearGradient><linearGradient id="e" x1="32.896" x2="32.896" y1="58.413" y2="40.16" gradientUnits="userSpaceOnUse"><stop stop-color="#ff7c4d" offset="0"/><stop stop-color="#f45237" offset="1"/></linearGradient></defs><circle transform="translate(.696 .696) scale(1.3043)" cx="24" cy="24" r="23" filter="url(#a)" opacity=".15"/><circle cx="31.999" cy="31.999" r="29.999" fill="url(#b)"/><path transform="matrix(.9153 0 0 .9153 10.032 9.681)" d="M25 12c-5.523 0-10 4.477-10 10v5.264a4.5 4.5 0 0 0-3 4.236 4.5 4.5 0 0 0 7.043 3.713c.1.448.479.787.957.787.554 0 1-.446 1-1v-7c0-.554-.446-1-1-1-.48 0-.86.341-.959.791A4.5 4.5 0 0 0 18 27.264V22a7 7 0 1 1 14 0v5.264a4.498 4.498 0 0 0-3 4.236C29 33.985 31.015 36 33.5 36s4.502-2.015 4.5-4.5a4.498 4.498 0 0 0-3-4.236V22c0-5.523-4.477-10-10-10zm-8.5 17a2.5 2.5 0 1 1 0 5 2.5 2.5 0 0 1 0-5zm17 0a2.5 2.5 0 1 1 0 5 2.5 2.5 0 0 1 0-5z" filter="url(#c)" opacity=".1" style="paint-order:normal"/><path d="M32.001 33c-1.725 0-3.45.345-4.725 1.032L7.913 44.456c-2.553 1.374-2.55 3.714.002 5.089l19.36 10.424c2.552 1.374 6.898 1.374 9.45 0l19.36-10.424c2.553-1.375 2.55-3.715-.002-5.09L36.725 34.033C35.45 33.345 33.725 33 32 33z" filter="url(#d)" opacity=".2" transform="translate(9.544 9.193) scale(.70175)"/><path d="M32.001 32c-1.725 0-3.45.345-4.725 1.032L7.913 43.456c-2.553 1.374-2.55 3.714.002 5.089l19.36 10.424c2.552 1.374 6.898 1.374 9.45 0l19.36-10.424c2.553-1.375 2.55-3.715-.002-5.09L36.725 33.033C35.45 32.345 33.725 32 32 32z" fill="url(#e)" transform="translate(9.544 9.193) scale(.70175)"/><path d="M32.001 19c-1.725 0-3.45.345-4.725 1.032L7.913 30.456c-2.553 1.374-2.55 3.714.002 5.089l19.36 10.424c2.552 1.374 6.898 1.374 9.45 0l19.36-10.424c2.553-1.375 2.55-3.715-.002-5.09L36.725 20.033C35.45 19.345 33.725 19 32 19z" filter="url(#f)" opacity=".2" transform="translate(9.544 9.193) scale(.70175)"/><path d="M32.001 18c-1.725 0-3.45.345-4.725 1.032L7.913 29.456c-2.553 1.374-2.55 3.714.002 5.089l19.36 10.424c2.552 1.374 6.898 1.374 9.45 0l19.36-10.424c2.553-1.375 2.55-3.715-.002-5.09L36.725 19.033C35.45 18.345 33.725 18 32 18z" fill="url(#g)" transform="translate(9.544 9.193) scale(.70175)"/><path d="M32.001 5c-1.725 0-3.45.345-4.725 1.032L7.913 16.456c-2.553 1.374-2.55 3.714.002 5.089l19.36 10.424c2.552 1.374 6.898 1.374 9.45 0l19.36-10.424c2.553-1.375 2.55-3.715-.002-5.09L36.725 6.033C35.45 5.345 33.725 5 32 5z" filter="url(#h)" opacity=".2" transform="translate(9.544 9.193) scale(.70175)"/><path d="M32.001 4c-1.725 0-3.45.345-4.725 1.032L7.913 15.456c-2.553 1.374-2.55 3.714.002 5.089l19.36 10.424c2.552 1.374 6.898 1.374 9.45 0l19.36-10.424c2.553-1.375 2.55-3.715-.002-5.09L36.725 5.033C35.45 4.345 33.725 4 32 4z" fill="url(#i)" transform="translate(9.544 9.193) scale(.70175)"/></svg>
